Newaita-dark/actions/24/tool-measure.svg

<svg height="24" viewBox="0 0 24 24" width="24" xmlns="http://www.w3.org/2000/svg"><g fill="#e0e0e0"><path d="m15.875 7.132812c0 .273438-.21875.496094-.496094.496094h-1.984375c-.273437 0-.496093-.222656-.496093-.496094 0-.273437.222656-.496093.496093-.496093h1.984375c.277344 0 .496094.222656.496094.496093zm0 0"/><path d="m12.898438 3.164062c-.546876 0-.992188.441407-.992188.992188v15.875c0 .550781.445312.996094.992188.996094h6.945312c.550781 0 .996094-.445313.996094-.996094v-15.875c0-.550781-.445313-.992188-.996094-.992188zm1.488281 1.984376h3.96875c.277343 0 .496093.222656.496093.496093v12.898438c0 .277343-.21875.496093-.496093.496093h-3.96875c-.273438 0-.496094-.21875-.496094-.496093v-12.898438c0-.273437.222656-.496093.496094-.496093zm0 0"/><path d="m15.875 9.613281c0 .273438-.21875.496094-.496094.496094h-1.984375c-.273437 0-.496093-.222656-.496093-.496094 0-.273437.222656-.496093.496093-.496093h1.984375c.277344 0 .496094.222656.496094.496093zm0 0"/><path d="m15.875 12.09375c0 .273438-.21875.496094-.496094.496094h-1.984375c-.273437 0-.496093-.222656-.496093-.496094s.222656-.496094.496093-.496094h1.984375c.277344 0 .496094.222656.496094.496094zm0 0"/><path d="m15.875 14.574219c0 .277343-.21875.496093-.496094.496093h-1.984375c-.273437 0-.496093-.21875-.496093-.496093 0-.273438.222656-.496094.496093-.496094h1.984375c.277344 0 .496094.222656.496094.496094zm0 0"/><path d="m15.875 17.054688c0 .277343-.21875.496093-.496094.496093h-1.984375c-.273437 0-.496093-.21875-.496093-.496093 0-.273438.222656-.496094.496093-.496094h1.984375c.277344 0 .496094.222656.496094.496094zm0 0"/><g stroke="#000" stroke-width=".264583" transform="matrix(.0468795 0 0 .0468795 0 10.079087)"><path d="m63.493937-62.847863 74.076259-84.658582 74.076259 84.658582zm0 0"/><path d="m63.493937 148.798592 74.076259 84.741908 74.076259-84.741908zm0 0"/></g></g></svg>

<svg xmlns="http://www.w3.org/2000/svg" xmlns:xlink="http://www.w3.org/1999/xlink" width="24px" height="24px" viewBox="0 0 24 24" version="1.1">
<g id="surface1">
     <defs>
  <style id="current-color-scheme" type="text/css">
   .ColorScheme-Text { color:#eeeeee; } .ColorScheme-Highlight { color:#424242; }
  </style>
 </defs>
<path style="fill:currentColor" class="ColorScheme-Text" d="M 15.875 7.132812 C 15.875 7.40625 15.65625 7.628906 15.378906 7.628906 L 13.394531 7.628906 C 13.121094 7.628906 12.898438 7.40625 12.898438 7.132812 C 12.898438 6.859375 13.121094 6.636719 13.394531 6.636719 L 15.378906 6.636719 C 15.65625 6.636719 15.875 6.859375 15.875 7.132812 Z M 15.875 7.132812 "/>
     <defs>
  <style id="current-color-scheme" type="text/css">
   .ColorScheme-Text { color:#eeeeee; } .ColorScheme-Highlight { color:#424242; }
  </style>
 </defs>
<path style="fill:currentColor" class="ColorScheme-Text" d="M 12.898438 3.164062 C 12.351562 3.164062 11.90625 3.605469 11.90625 4.15625 L 11.90625 20.03125 C 11.90625 20.582031 12.351562 21.027344 12.898438 21.027344 L 19.84375 21.027344 C 20.394531 21.027344 20.839844 20.582031 20.839844 20.03125 L 20.839844 4.15625 C 20.839844 3.605469 20.394531 3.164062 19.84375 3.164062 Z M 14.386719 5.148438 L 18.355469 5.148438 C 18.632812 5.148438 18.851562 5.371094 18.851562 5.644531 L 18.851562 18.542969 C 18.851562 18.820312 18.632812 19.039062 18.355469 19.039062 L 14.386719 19.039062 C 14.113281 19.039062 13.890625 18.820312 13.890625 18.542969 L 13.890625 5.644531 C 13.890625 5.371094 14.113281 5.148438 14.386719 5.148438 Z M 14.386719 5.148438 "/>
     <defs>
  <style id="current-color-scheme" type="text/css">
   .ColorScheme-Text { color:#eeeeee; } .ColorScheme-Highlight { color:#424242; }
  </style>
 </defs>
<path style="fill:currentColor" class="ColorScheme-Text" d="M 15.875 9.613281 C 15.875 9.886719 15.65625 10.109375 15.378906 10.109375 L 13.394531 10.109375 C 13.121094 10.109375 12.898438 9.886719 12.898438 9.613281 C 12.898438 9.339844 13.121094 9.117188 13.394531 9.117188 L 15.378906 9.117188 C 15.65625 9.117188 15.875 9.339844 15.875 9.613281 Z M 15.875 9.613281 "/>
     <defs>
  <style id="current-color-scheme" type="text/css">
   .ColorScheme-Text { color:#eeeeee; } .ColorScheme-Highlight { color:#424242; }
  </style>
 </defs>
<path style="fill:currentColor" class="ColorScheme-Text" d="M 15.875 12.09375 C 15.875 12.367188 15.65625 12.589844 15.378906 12.589844 L 13.394531 12.589844 C 13.121094 12.589844 12.898438 12.367188 12.898438 12.09375 C 12.898438 11.820312 13.121094 11.597656 13.394531 11.597656 L 15.378906 11.597656 C 15.65625 11.597656 15.875 11.820312 15.875 12.09375 Z M 15.875 12.09375 "/>
     <defs>
  <style id="current-color-scheme" type="text/css">
   .ColorScheme-Text { color:#eeeeee; } .ColorScheme-Highlight { color:#424242; }
  </style>
 </defs>
<path style="fill:currentColor" class="ColorScheme-Text" d="M 15.875 14.574219 C 15.875 14.851562 15.65625 15.070312 15.378906 15.070312 L 13.394531 15.070312 C 13.121094 15.070312 12.898438 14.851562 12.898438 14.574219 C 12.898438 14.300781 13.121094 14.078125 13.394531 14.078125 L 15.378906 14.078125 C 15.65625 14.078125 15.875 14.300781 15.875 14.574219 Z M 15.875 14.574219 "/>
     <defs>
  <style id="current-color-scheme" type="text/css">
   .ColorScheme-Text { color:#eeeeee; } .ColorScheme-Highlight { color:#424242; }
  </style>
 </defs>
<path style="fill:currentColor" class="ColorScheme-Text" d="M 15.875 17.054688 C 15.875 17.332031 15.65625 17.550781 15.378906 17.550781 L 13.394531 17.550781 C 13.121094 17.550781 12.898438 17.332031 12.898438 17.054688 C 12.898438 16.78125 13.121094 16.558594 13.394531 16.558594 L 15.378906 16.558594 C 15.65625 16.558594 15.875 16.78125 15.875 17.054688 Z M 15.875 17.054688 "/>
<path style="fill-rule:nonzero;fill:rgb(87.843138%,87.843138%,87.843138%);fill-opacity:1;stroke-width:0.264583;stroke-linecap:butt;stroke-linejoin:miter;stroke:rgb(0%,0%,0%);stroke-opacity:1;stroke-miterlimit:4;" d="M 63.493904 -62.847828 L 137.570126 -147.506367 L 211.646348 -62.847828 Z M 63.493904 -62.847828 " transform="matrix(0.0468795,0,0,0.0468795,0,10.079087)"/>
<path style="fill-rule:nonzero;fill:rgb(87.843138%,87.843138%,87.843138%);fill-opacity:1;stroke-width:0.264583;stroke-linecap:butt;stroke-linejoin:miter;stroke:rgb(0%,0%,0%);stroke-opacity:1;stroke-miterlimit:4;" d="M 63.493904 148.79852 L 137.570126 233.540385 L 211.646348 148.79852 Z M 63.493904 148.79852 " transform="matrix(0.0468795,0,0,0.0468795,0,10.079087)"/>
</g>
</svg>
